X: 1
T: Polons, sexdregasamlingen del 2 nr 124
S: efter Anders Larsson
B: Sexdregasamlingen del 2 nr 124
O: Sexdrega, Vstergtland
R: Slngpolska
Z: 2008-05-31 av Nils L
M: 3/4
K: Dm
L: 1/16
A2d^c d4 e4 | f2ed g2fe f2ed | ^c4 g2fe f2ed | ^c2e2 A2f2 e2a2 | f2ef d4 d4 ::
f2ed g2fe f2ed | ^c2d2 e2a2 A4 | f2ed g2fe f2ed | A2d^c d8 :|
